X: 8874
T: Cunning Workmen, The
R: polka
M: 2/4
K: Dmajor
M:4/4
|:AB/c/|d>c dA Bd A>B|Ad AF E4|D2 D/E/F/G/ Ad B2|Ad AF E2 AB/c/|
d2 dA BA F/G/A/B/|Ad AF E4|D2 D/E/F/G/ Ad B2|AF EF/E/ D2:|
|:DA|B>A A/B/c d2 cd/c/|B>A Bc d3 e|fd e/d/c d/c/B AF/G/|Ad AF E3 d|
d2 d>A BA F>G|Ad AF E3 D|D2 D/E/F/G/ Ad B2|AF EF D2:|

